X: 43
T:Lad O'Beirne's
M:C|
L:1/8
C:Lad O'Beirne
R:reel
D:Arty McGlynn & Nollaig Casey: Lead the Knave
D:Dervish: The Boys of Sligo
Z:id:hn-reel-220
K:G
DG~G2 DGBG|(3ABc BG AGEG|DGGF GABd|egdg edge|
dB~B2 dBGB|cE~E2 GEDB,|DEGA B2eB|1 dBAd BGGE:|2 dBAd BGGA||
|:Bdd^c d2ef|g2bg abge|dB~B2 GBdB|cE~E2 GED2|
Bdd^c d2ef|g2bg abge|DEGA B2eB|1 dBAd BGGA:|2 dBAd BGGE||

